Newaita-dark/apps/scalable/xorg.svg

<?xml version="1.0" encoding="UTF-8"?>
<svg xmlns="http://www.w3.org/2000/svg" xmlns:xlink="http://www.w3.org/1999/xlink" width="512pt" height="512pt" viewBox="0 0 512 512" version="1.1">
<defs>
<radialGradient id="radial0" gradientUnits="userSpaceOnUse" cx="450.908936" cy="189.579361" fx="450.908936" fy="189.579361" r="21.166656" gradientTransform="matrix(0.00000278673,-1.250119,-2.250215,-0.00000162462,537.72876,1017.52527)">
<stop offset="0" style="stop-color:rgb(0%,0%,0%);stop-opacity:0.313725;"/>
<stop offset="0.222222" style="stop-color:rgb(0%,0%,0%);stop-opacity:0.27451;"/>
<stop offset="1" style="stop-color:rgb(0%,0%,0%);stop-opacity:0;"/>
</radialGradient>
<radialGradient id="radial1" gradientUnits="userSpaceOnUse" cx="450.908936" cy="189.579361" fx="450.908936" fy="189.579361" r="21.166656" gradientTransform="matrix(-0.00000278673,1.250119,2.250215,0.00000162462,-315.457505,-120.439713)">
<stop offset="0" style="stop-color:rgb(0%,0%,0%);stop-opacity:0.313725;"/>
<stop offset="0.222222" style="stop-color:rgb(0%,0%,0%);stop-opacity:0.27451;"/>
<stop offset="1" style="stop-color:rgb(0%,0%,0%);stop-opacity:0;"/>
</radialGradient>
<radialGradient id="radial2" gradientUnits="userSpaceOnUse" cx="450.908936" cy="189.579361" fx="450.908936" fy="189.579361" r="21.166656" gradientTransform="matrix(-0.00000278673,-1.250119,2.250215,-0.00000162462,-315.457505,1017.52527)">
<stop offset="0" style="stop-color:rgb(0%,0%,0%);stop-opacity:0.313725;"/>
<stop offset="0.222222" style="stop-color:rgb(0%,0%,0%);stop-opacity:0.27451;"/>
<stop offset="1" style="stop-color:rgb(0%,0%,0%);stop-opacity:0;"/>
</radialGradient>
<radialGradient id="radial3" gradientUnits="userSpaceOnUse" cx="450.908936" cy="189.579361" fx="450.908936" fy="189.579361" r="21.166656" gradientTransform="matrix(0.00000278673,1.250119,-2.250215,0.00000162462,537.728729,-120.43972)">
<stop offset="0" style="stop-color:rgb(0%,0%,0%);stop-opacity:0.313725;"/>
<stop offset="0.222222" style="stop-color:rgb(0%,0%,0%);stop-opacity:0.27451;"/>
<stop offset="1" style="stop-color:rgb(0%,0%,0%);stop-opacity:0;"/>
</radialGradient>
<linearGradient id="linear0" gradientUnits="userSpaceOnUse" x1="255.323059" y1="233.5" x2="255.323044" y2="254.666656" gradientTransform="matrix(0.0305373,0,0,1.000095,103.338755,215.020539)">
<stop offset="0" style="stop-color:rgb(0%,0%,0%);stop-opacity:0.27451;"/>
<stop offset="1" style="stop-color:rgb(0%,0%,0%);stop-opacity:0;"/>
</linearGradient>
<radialGradient id="radial4" gradientUnits="userSpaceOnUse" cx="450.908936" cy="189.579361" fx="450.908936" fy="189.579361" r="21.166656" gradientTransform="matrix(0.00000278673,-1.250119,-2.250215,-0.00000162462,823.506047,1017.52527)">
<stop offset="0" style="stop-color:rgb(0%,0%,0%);stop-opacity:0.313725;"/>
<stop offset="0.222222" style="stop-color:rgb(0%,0%,0%);stop-opacity:0.27451;"/>
<stop offset="1" style="stop-color:rgb(0%,0%,0%);stop-opacity:0;"/>
</radialGradient>
<radialGradient id="radial5" gradientUnits="userSpaceOnUse" cx="450.908936" cy="189.579361" fx="450.908936" fy="189.579361" r="21.166656" gradientTransform="matrix(-0.00000278673,1.250119,2.250215,0.00000162462,-29.680217,-120.439713)">
<stop offset="0" style="stop-color:rgb(0%,0%,0%);stop-opacity:0.313725;"/>
<stop offset="0.222222" style="stop-color:rgb(0%,0%,0%);stop-opacity:0.27451;"/>
<stop offset="1" style="stop-color:rgb(0%,0%,0%);stop-opacity:0;"/>
</radialGradient>
<radialGradient id="radial6" gradientUnits="userSpaceOnUse" cx="450.908936" cy="189.579361" fx="450.908936" fy="189.579361" r="21.166656" gradientTransform="matrix(-0.00000278673,-1.250119,2.250215,-0.00000162462,-29.680217,1017.52527)">
<stop offset="0" style="stop-color:rgb(0%,0%,0%);stop-opacity:0.313725;"/>
<stop offset="0.222222" style="stop-color:rgb(0%,0%,0%);stop-opacity:0.27451;"/>
<stop offset="1" style="stop-color:rgb(0%,0%,0%);stop-opacity:0;"/>
</radialGradient>
<radialGradient id="radial7" gradientUnits="userSpaceOnUse" cx="450.908936" cy="189.579361" fx="450.908936" fy="189.579361" r="21.166656" gradientTransform="matrix(0.00000278673,1.250119,-2.250215,0.00000162462,823.506017,-120.43972)">
<stop offset="0" style="stop-color:rgb(0%,0%,0%);stop-opacity:0.313725;"/>
<stop offset="0.222222" style="stop-color:rgb(0%,0%,0%);stop-opacity:0.27451;"/>
<stop offset="1" style="stop-color:rgb(0%,0%,0%);stop-opacity:0;"/>
</radialGradient>
<linearGradient id="linear1" gradientUnits="userSpaceOnUse" x1="255.323059" y1="233.5" x2="255.323044" y2="254.666656" gradientTransform="matrix(0.0305373,0,0,1.000095,389.116043,215.020539)">
<stop offset="0" style="stop-color:rgb(0%,0%,0%);stop-opacity:0.27451;"/>
<stop offset="1" style="stop-color:rgb(0%,0%,0%);stop-opacity:0;"/>
</linearGradient>
<linearGradient id="linear2" gradientUnits="userSpaceOnUse" x1="254" y1="233.5" x2="254" y2="-168.666672" gradientTransform="matrix(1.000095,0,0,1.000095,0,215.020531)">
<stop offset="0" style="stop-color:rgb(25.882353%,25.882353%,25.882353%);stop-opacity:1;"/>
<stop offset="1" style="stop-color:rgb(38.039216%,38.039216%,38.039216%);stop-opacity:1;"/>
</linearGradient>
</defs>
<g id="surface1">
<path style=" stroke:none;fill-rule:nonzero;fill:url(#radial0);" d="M 116.429688 448.542969 L 158.765625 448.542969 L 158.765625 427.375 L 116.429688 427.375 Z M 116.429688 448.542969 "/>
<path style=" stroke:none;fill-rule:nonzero;fill:url(#radial1);" d="M 105.84375 448.542969 L 63.507812 448.542969 L 63.507812 469.710938 L 105.84375 469.710938 Z M 105.84375 448.542969 "/>
<path style=" stroke:none;fill-rule:nonzero;fill:url(#radial2);" d="M 105.84375 448.542969 L 63.507812 448.542969 L 63.507812 427.375 L 105.84375 427.375 Z M 105.84375 448.542969 "/>
<path style=" stroke:none;fill-rule:nonzero;fill:url(#radial3);" d="M 116.429688 448.542969 L 158.765625 448.542969 L 158.765625 469.710938 L 116.429688 469.710938 Z M 116.429688 448.542969 "/>
<path style=" stroke:none;fill-rule:nonzero;fill:url(#linear0);" d="M 105.84375 443.25 L 116.429688 443.25 L 116.429688 469.710938 L 105.84375 469.710938 Z M 105.84375 443.25 "/>
<path style=" stroke:none;fill-rule:nonzero;fill:url(#radial4);" d="M 402.203125 448.542969 L 444.542969 448.542969 L 444.542969 427.375 L 402.203125 427.375 Z M 402.203125 448.542969 "/>
<path style=" stroke:none;fill-rule:nonzero;fill:url(#radial5);" d="M 391.621094 448.542969 L 349.285156 448.542969 L 349.285156 469.710938 L 391.621094 469.710938 Z M 391.621094 448.542969 "/>
<path style=" stroke:none;fill-rule:nonzero;fill:url(#radial6);" d="M 391.621094 448.542969 L 349.285156 448.542969 L 349.285156 427.375 L 391.621094 427.375 Z M 391.621094 448.542969 "/>
<path style=" stroke:none;fill-rule:nonzero;fill:url(#radial7);" d="M 402.203125 448.542969 L 444.542969 448.542969 L 444.542969 469.710938 L 402.203125 469.710938 Z M 402.203125 448.542969 "/>
<path style=" stroke:none;fill-rule:nonzero;fill:url(#linear1);" d="M 391.621094 443.25 L 402.203125 443.25 L 402.203125 469.710938 L 391.621094 469.710938 Z M 391.621094 443.25 "/>
<path style=" stroke:none;fill-rule:nonzero;fill:url(#linear2);" d="M 115.566406 51.234375 C 110.152344 51.234375 104.742188 53.308594 100.597656 57.453125 L 63.175781 94.875 C 54.882812 103.167969 54.882812 116.519531 63.175781 124.8125 L 186.664062 248.304688 L 63.175781 371.792969 C 54.882812 380.085938 54.882812 393.4375 63.175781 401.730469 L 100.597656 439.152344 C 108.890625 447.445312 122.242188 447.445312 130.535156 439.152344 L 254.023438 315.660156 L 377.515625 439.152344 C 385.808594 447.445312 399.160156 447.445312 407.453125 439.152344 L 444.871094 401.730469 C 453.164062 393.4375 453.164062 380.085938 444.871094 371.792969 L 321.382812 248.304688 L 444.871094 124.8125 C 453.164062 116.519531 453.164062 103.167969 444.871094 94.875 L 407.453125 57.453125 C 403.304688 53.308594 397.894531 51.234375 392.484375 51.234375 C 387.070312 51.234375 381.660156 53.308594 377.515625 57.453125 L 254.023438 180.945312 L 130.535156 57.453125 C 126.386719 53.308594 120.976562 51.234375 115.566406 51.234375 Z M 115.566406 51.234375 "/>
<path style=" stroke:none;fill-rule:nonzero;fill:rgb(100%,100%,100%);fill-opacity:0.392157;" d="M 115.566406 51.234375 C 110.152344 51.234375 104.742188 53.308594 100.597656 57.453125 L 63.175781 94.875 C 58.273438 99.777344 56.269531 106.449219 57.164062 112.796875 C 57.78125 108.40625 59.785156 104.171875 63.175781 100.78125 L 100.597656 63.359375 C 104.742188 59.214844 110.152344 57.140625 115.566406 57.140625 C 120.976562 57.140625 126.386719 59.214844 130.535156 63.359375 L 254.023438 186.851562 L 377.515625 63.359375 C 381.660156 59.214844 387.070312 57.140625 392.484375 57.140625 C 397.894531 57.140625 403.304688 59.214844 407.453125 63.359375 L 444.871094 100.78125 C 448.261719 104.171875 450.265625 108.40625 450.882812 112.796875 C 451.777344 106.449219 449.773438 99.777344 444.871094 94.875 L 407.453125 57.453125 C 403.304688 53.308594 397.894531 51.234375 392.484375 51.234375 C 387.070312 51.234375 381.660156 53.308594 377.515625 57.453125 L 254.023438 180.945312 L 130.535156 57.453125 C 126.386719 53.308594 120.976562 51.234375 115.566406 51.234375 Z M 183.710938 251.257812 L 63.175781 371.792969 C 58.273438 376.695312 56.269531 383.367188 57.164062 389.714844 C 57.78125 385.324219 59.785156 381.089844 63.175781 377.699219 L 186.664062 254.210938 Z M 324.335938 251.257812 L 321.382812 254.210938 L 444.871094 377.699219 C 448.261719 381.089844 450.265625 385.324219 450.882812 389.714844 C 451.777344 383.367188 449.773438 376.695312 444.871094 371.792969 Z M 324.335938 251.257812 "/>
<path style=" stroke:none;fill-rule:nonzero;fill:rgb(0%,0%,0%);fill-opacity:0.235294;" d="M 115.566406 446.5625 C 110.152344 446.5625 104.742188 444.488281 100.597656 440.34375 L 63.175781 402.921875 C 58.273438 398.019531 56.269531 391.347656 57.164062 385 C 57.78125 389.390625 59.785156 393.625 63.175781 397.015625 L 100.597656 434.4375 C 104.742188 438.582031 110.152344 440.65625 115.566406 440.65625 C 120.976562 440.65625 126.386719 438.582031 130.535156 434.4375 L 254.023438 310.945312 L 377.515625 434.4375 C 381.660156 438.582031 387.070312 440.65625 392.484375 440.65625 C 397.894531 440.65625 403.304688 438.582031 407.453125 434.4375 L 444.871094 397.015625 C 448.261719 393.625 450.265625 389.390625 450.882812 385 C 451.777344 391.347656 449.773438 398.019531 444.871094 402.921875 L 407.453125 440.34375 C 403.304688 444.488281 397.894531 446.5625 392.484375 446.5625 C 387.070312 446.5625 381.660156 444.488281 377.515625 440.34375 L 254.023438 316.851562 L 130.535156 440.34375 C 126.386719 444.488281 120.976562 446.5625 115.566406 446.5625 Z M 183.710938 246.542969 L 63.175781 126.003906 C 58.273438 121.101562 56.269531 114.429688 57.164062 108.082031 C 57.78125 112.472656 59.785156 116.707031 63.175781 120.097656 L 186.664062 243.589844 Z M 324.335938 246.542969 L 321.382812 243.589844 L 444.871094 120.097656 C 448.261719 116.707031 450.265625 112.472656 450.882812 108.082031 C 451.777344 114.429688 449.773438 121.101562 444.871094 126.003906 Z M 324.335938 246.542969 "/>
<path style=" stroke:none;fill-rule:nonzero;fill:rgb(12.941177%,12.941177%,12.941177%);fill-opacity:1;" d="M 115.566406 49.734375 C 109.769531 49.734375 103.96875 51.964844 99.535156 56.394531 L 62.117188 93.8125 C 53.253906 102.675781 53.253906 117.011719 62.117188 125.875 L 184.546875 248.304688 L 62.117188 370.734375 C 53.253906 379.59375 53.253906 393.929688 62.117188 402.789062 L 99.535156 440.210938 C 108.398438 449.074219 122.734375 449.074219 131.59375 440.210938 L 254.023438 317.78125 L 376.453125 440.210938 C 385.316406 449.074219 399.648438 449.074219 408.511719 440.210938 L 445.933594 402.789062 C 454.796875 393.929688 454.796875 379.59375 445.933594 370.734375 L 323.503906 248.304688 L 445.933594 125.875 C 454.796875 117.011719 454.796875 102.675781 445.933594 93.8125 L 408.511719 56.394531 C 404.082031 51.964844 398.277344 49.734375 392.484375 49.734375 C 386.6875 49.734375 380.886719 51.964844 376.453125 56.394531 L 254.023438 178.824219 L 131.59375 56.394531 C 127.164062 51.964844 121.359375 49.734375 115.566406 49.734375 Z M 115.566406 52.734375 C 120.59375 52.734375 125.613281 54.652344 129.472656 58.515625 L 252.964844 182.003906 C 253.550781 182.589844 254.5 182.589844 255.085938 182.003906 L 378.574219 58.515625 C 382.4375 54.652344 387.453125 52.734375 392.484375 52.734375 C 397.511719 52.734375 402.527344 54.652344 406.390625 58.515625 L 443.8125 95.933594 C 451.535156 103.65625 451.535156 116.027344 443.8125 123.753906 L 320.320312 247.242188 C 319.734375 247.828125 319.734375 248.777344 320.320312 249.363281 L 443.8125 372.855469 C 451.535156 380.578125 451.535156 392.945312 443.8125 400.667969 L 406.390625 438.089844 C 398.667969 445.8125 386.296875 445.8125 378.574219 438.089844 L 255.085938 314.601562 C 254.5 314.015625 253.550781 314.015625 252.964844 314.601562 L 129.472656 438.089844 C 121.75 445.8125 109.382812 445.8125 101.65625 438.089844 L 64.238281 400.667969 C 56.511719 392.945312 56.511719 380.578125 64.238281 372.855469 L 187.726562 249.363281 C 188.3125 248.777344 188.3125 247.828125 187.726562 247.242188 L 64.238281 123.753906 C 56.511719 116.027344 56.511719 103.65625 64.238281 95.933594 L 101.65625 58.515625 C 105.519531 54.652344 110.539062 52.734375 115.566406 52.734375 Z M 115.566406 52.734375 "/>
</g>
</svg>

<svg xmlns="http://www.w3.org/2000/svg" width="512pt" height="512pt" viewBox="0 0 512 512"><defs><radialGradient id="a" gradientUnits="userSpaceOnUse" cx="450.909" cy="189.579" fx="450.909" fy="189.579" r="21.167" gradientTransform="matrix(0 -1.25012 -2.25021 0 537.729 1017.525)"><stop offset="0" stop-opacity=".314"/><stop offset=".222" stop-opacity=".275"/><stop offset="1" stop-opacity="0"/></radialGradient><radialGradient id="b" gradientUnits="userSpaceOnUse" cx="450.909" cy="189.579" fx="450.909" fy="189.579" r="21.167" gradientTransform="matrix(0 1.25012 2.25021 0 -315.458 -120.44)"><stop offset="0" stop-opacity=".314"/><stop offset=".222" stop-opacity=".275"/><stop offset="1" stop-opacity="0"/></radialGradient><radialGradient id="c" gradientUnits="userSpaceOnUse" cx="450.909" cy="189.579" fx="450.909" fy="189.579" r="21.167" gradientTransform="matrix(0 -1.25012 2.25021 0 -315.458 1017.525)"><stop offset="0" stop-opacity=".314"/><stop offset=".222" stop-opacity=".275"/><stop offset="1" stop-opacity="0"/></radialGradient><radialGradient id="d" gradientUnits="userSpaceOnUse" cx="450.909" cy="189.579" fx="450.909" fy="189.579" r="21.167" gradientTransform="matrix(0 1.25012 -2.25021 0 537.729 -120.44)"><stop offset="0" stop-opacity=".314"/><stop offset=".222" stop-opacity=".275"/><stop offset="1" stop-opacity="0"/></radialGradient><linearGradient id="e" gradientUnits="userSpaceOnUse" x1="255.323" y1="233.5" x2="255.323" y2="254.667" gradientTransform="matrix(.03054 0 0 1.0001 103.339 215.02)"><stop offset="0" stop-opacity=".275"/><stop offset="1" stop-opacity="0"/></linearGradient><radialGradient id="f" gradientUnits="userSpaceOnUse" cx="450.909" cy="189.579" fx="450.909" fy="189.579" r="21.167" gradientTransform="matrix(0 -1.25012 -2.25021 0 823.506 1017.525)"><stop offset="0" stop-opacity=".314"/><stop offset=".222" stop-opacity=".275"/><stop offset="1" stop-opacity="0"/></radialGradient><radialGradient id="g" gradientUnits="userSpaceOnUse" cx="450.909" cy="189.579" fx="450.909" fy="189.579" r="21.167" gradientTransform="matrix(0 1.25012 2.25021 0 -29.68 -120.44)"><stop offset="0" stop-opacity=".314"/><stop offset=".222" stop-opacity=".275"/><stop offset="1" stop-opacity="0"/></radialGradient><radialGradient id="h" gradientUnits="userSpaceOnUse" cx="450.909" cy="189.579" fx="450.909" fy="189.579" r="21.167" gradientTransform="matrix(0 -1.25012 2.25021 0 -29.68 1017.525)"><stop offset="0" stop-opacity=".314"/><stop offset=".222" stop-opacity=".275"/><stop offset="1" stop-opacity="0"/></radialGradient><radialGradient id="i" gradientUnits="userSpaceOnUse" cx="450.909" cy="189.579" fx="450.909" fy="189.579" r="21.167" gradientTransform="matrix(0 1.25012 -2.25021 0 823.506 -120.44)"><stop offset="0" stop-opacity=".314"/><stop offset=".222" stop-opacity=".275"/><stop offset="1" stop-opacity="0"/></radialGradient><linearGradient id="j" gradientUnits="userSpaceOnUse" x1="255.323" y1="233.5" x2="255.323" y2="254.667" gradientTransform="matrix(.03054 0 0 1.0001 389.116 215.02)"><stop offset="0" stop-opacity=".275"/><stop offset="1" stop-opacity="0"/></linearGradient><linearGradient id="k" gradientUnits="userSpaceOnUse" x1="254" y1="233.5" x2="254" y2="-168.667" gradientTransform="matrix(1.0001 0 0 1.0001 0 215.02)"><stop offset="0" stop-color="#424242"/><stop offset="1" stop-color="#616161"/></linearGradient></defs><path d="M116.43 448.543h42.336v-21.168H116.43zm0 0" fill="url(#a)"/><path d="M105.844 448.543H63.508v21.168h42.336zm0 0" fill="url(#b)"/><path d="M105.844 448.543H63.508v-21.168h42.336zm0 0" fill="url(#c)"/><path d="M116.43 448.543h42.336v21.168H116.43zm0 0" fill="url(#d)"/><path d="M105.844 443.25h10.586v26.46h-10.586zm0 0" fill="url(#e)"/><path d="M402.203 448.543h42.34v-21.168h-42.34zm0 0" fill="url(#f)"/><path d="M391.621 448.543h-42.336v21.168h42.336zm0 0" fill="url(#g)"/><path d="M391.621 448.543h-42.336v-21.168h42.336zm0 0" fill="url(#h)"/><path d="M402.203 448.543h42.34v21.168h-42.34zm0 0" fill="url(#i)"/><path d="M391.621 443.25h10.582v26.46h-10.582zm0 0" fill="url(#j)"/><path d="M115.566 51.234a21.101 21.101 0 0 0-14.968 6.22L63.176 94.874a21.122 21.122 0 0 0 0 29.938l123.488 123.492L63.176 371.793a21.122 21.122 0 0 0 0 29.937l37.422 37.422a21.122 21.122 0 0 0 29.937 0L254.023 315.66l123.493 123.492a21.122 21.122 0 0 0 29.937 0l37.418-37.422a21.122 21.122 0 0 0 0-29.937L321.383 248.305 444.87 124.812a21.122 21.122 0 0 0 0-29.937l-37.418-37.422a21.114 21.114 0 0 0-14.969-6.219 21.101 21.101 0 0 0-14.968 6.22L254.023 180.944 130.535 57.453a21.114 21.114 0 0 0-14.969-6.219zm0 0" fill="url(#k)"/><path d="M115.566 51.234a21.101 21.101 0 0 0-14.968 6.22L63.176 94.874a21.11 21.11 0 0 0-6.012 17.922 21.094 21.094 0 0 1 6.012-12.016l37.422-37.422a21.101 21.101 0 0 1 14.968-6.218c5.41 0 10.82 2.074 14.97 6.218l123.487 123.493L377.516 63.359a21.101 21.101 0 0 1 14.968-6.218c5.41 0 10.82 2.074 14.97 6.218l37.417 37.422a21.094 21.094 0 0 1 6.012 12.016 21.11 21.11 0 0 0-6.012-17.922l-37.418-37.422a21.114 21.114 0 0 0-14.969-6.219 21.101 21.101 0 0 0-14.968 6.22L254.023 180.944 130.535 57.453a21.114 21.114 0 0 0-14.969-6.219zm68.145 200.024L63.176 371.793a21.11 21.11 0 0 0-6.012 17.922 21.094 21.094 0 0 1 6.012-12.016l123.488-123.488zm140.625 0l-2.953 2.953L444.87 377.699a21.094 21.094 0 0 1 6.012 12.016 21.11 21.11 0 0 0-6.012-17.922zm0 0" fill="#fff" fill-opacity=".392"/><path d="M115.566 446.563a21.101 21.101 0 0 1-14.968-6.22l-37.422-37.421A21.11 21.11 0 0 1 57.164 385a21.094 21.094 0 0 0 6.012 12.016l37.422 37.421a21.101 21.101 0 0 0 14.968 6.22c5.41 0 10.82-2.075 14.97-6.22l123.487-123.492 123.493 123.493a21.101 21.101 0 0 0 14.968 6.218c5.41 0 10.82-2.074 14.97-6.219l37.417-37.421A21.094 21.094 0 0 0 450.883 385a21.11 21.11 0 0 1-6.012 17.922l-37.418 37.422a21.114 21.114 0 0 1-14.969 6.219 21.101 21.101 0 0 1-14.968-6.22L254.023 316.853 130.535 440.344a21.114 21.114 0 0 1-14.969 6.219zm68.145-200.02L63.176 126.003a21.11 21.11 0 0 1-6.012-17.921 21.094 21.094 0 0 0 6.012 12.016L186.664 243.59zm140.625 0l-2.953-2.953L444.87 120.098a21.094 21.094 0 0 0 6.012-12.016 21.11 21.11 0 0 1-6.012 17.922zm0 0" fill-opacity=".235"/><path d="M115.566 49.734a22.63 22.63 0 0 0-16.03 6.66L62.116 93.814c-8.863 8.863-8.863 23.199 0 32.062l122.43 122.43-122.43 122.43c-8.863 8.859-8.863 23.195 0 32.054l37.418 37.422c8.863 8.863 23.2 8.863 32.059 0l122.43-122.43 122.43 122.43c8.862 8.863 23.194 8.863 32.058 0l37.422-37.422c8.863-8.86 8.863-23.195 0-32.055l-122.43-122.43 122.43-122.429c8.863-8.863 8.863-23.2 0-32.063l-37.422-37.417a22.621 22.621 0 0 0-16.028-6.66 22.63 22.63 0 0 0-16.03 6.66l-122.43 122.43-122.43-122.43a22.621 22.621 0 0 0-16.028-6.66zm0 3a19.573 19.573 0 0 1 13.907 5.782l123.492 123.488a1.5 1.5 0 0 0 2.12 0l123.49-123.488a19.582 19.582 0 0 1 13.91-5.782c5.027 0 10.042 1.918 13.906 5.782l37.421 37.418a19.6 19.6 0 0 1 0 27.82L320.32 247.242a1.5 1.5 0 0 0 0 2.121l123.493 123.492a19.59 19.59 0 0 1 0 27.813L406.39 438.09a19.595 19.595 0 0 1-27.817 0L255.086 314.602a1.5 1.5 0 0 0-2.121 0L129.473 438.09a19.595 19.595 0 0 1-27.817 0l-37.418-37.422a19.583 19.583 0 0 1 0-27.813l123.489-123.492a1.5 1.5 0 0 0 0-2.12L64.238 123.752a19.592 19.592 0 0 1 0-27.82l37.418-37.417a19.588 19.588 0 0 1 13.91-5.782zm0 0" fill="#212121"/></svg>
